X:1
T:Title
%%score { ( 1 4 ) | ( 2 3 ) }
L:1/8
Q:1/4=100
M:4/4
K:D
V:1 treble nm="Grand Piano"
V:4 treble 
V:2 bass 
V:3 bass 
V:1
 [FA]3 [GB] [FA][Bd][Ac][GB] | [FA]4 [DF]4 | [CE]3 [DF] [EG]2 [CGB]2 | [GB]3 [FA] [FA]4 | %4
w: Flora~Hamilton~Cassel * * * * *||||
 A3 B AdcB | A4 F4 | E4 ^G2 B2 | [A,CA]6 z2 | [CGA]3 [CGB] [CGA]2 [CGe]2 | [DFA]3 [DGB] [DFA]4 | %10
w: ||||||
 [CGA]3 [CGB] [CGA]2 [CGe]2 | [FA]3 [GB] [FA]4 | [Fd]3 [Ec] edcB | A2 z2 z4 | [CGA]3 [CGA] [CGA]4 | %15
w: |||||
 [FA]3 [FA] [FA]4 | [Fd]3 [Ec] edcB | A2 d2 [FA]2 [DF]2 | [B,DG]4 C2- [CA]2 | D6 z2 |] %20
w: |||||
V:2
 [D,D]3 [D,D] [D,D][D,D][D,D][D,D] | [D,D]4 [D,A,]4 | [A,,A,]3 [A,,A,] A,2 z2 | %3
 [D,D]3 [D,D] [D,D]4 | [D,F,D]3 [D,G,D] [D,F,D][D,B,D][D,A,D][D,G,D] | [D,F,D]4 [D,A,D]4 | %6
 [A,C]4 [B,D]2 [E,^G,D]2 | A,,6 z2 | A,,3 A,, A,,2 A,,2 | D,3 D, D,4 | A,,3 A,, A,,2 A,,2 | %11
 [D,D]3 [D,D] [D,D]4 | [D,A,]3 [D,A,][K:treble] [G,B,G][G,B,G][G,CG][G,DG] | z2 d2 A2 z2 | %14
 A,,3 A,, A,,4 | [D,D]3 [D,D] [D,D]4 | [D,A,]3 [D,A,][K:treble] [G,B,G][G,B,G][G,CG][G,DG] | %17
 D2- [D-A]2 D2 A,2 | A,,4 z2 G,2 | [D,F,A,]6 z2 |] %20
V:3
 x8 | x8 | z4 A,,4 | x8 | x8 | x8 | E,6 z2 | x8 | x8 | x8 | x8 | x8 | x4[K:treble] x4 | D,6 z2 | %14
 x8 | x8 | x4[K:treble] x4 | F,4 D,4 | z4 A,,4 | x8 |] %20
V:4
 x8 | x8 | x8 | x8 | x8 | x8 | x8 | x8 | x8 | x8 | x8 | x8 | x8 | [DF]6 z2 | x8 | x8 | x8 | x8 | %18
 z4 [A,E]2 z2 | x8 |] %20

